assets/img/braze_icons/line-height.svg

<svg fill="none" height="24" viewBox="0 0 24 24" width="24" xmlns="http://www.w3.org/2000/svg"><g fill="#801ed7"><path d="m3 2c-.55228 0-1 .44772-1 1s.44772 1 1 1h18c.5523 0 1-.44772 1-1s-.4477-1-1-1z"/><path clip-rule="evenodd" d="m12.6628 5.86287c-.4179-.20583-.9077-.20583-1.3256 0-.3672.18087-.5608.49793-.6547.66319-.1006.17712-.2037.40399-.3062.62963l-4.28667 9.43071c-.22853.5028-.00621 1.0956.49657 1.3242.50278.2285 1.09563.0062 1.32417-.4966l1.55181-3.414h5.07562l1.5518 3.414c.2286.5028.8214.7251 1.3242.4966.5028-.2286.7251-.8214.4966-1.3242l-4.2867-9.43071c-.1025-.22564-.2056-.45251-.3062-.62963-.0939-.16526-.2875-.48232-.6547-.66319zm.9659 6.13713-1.6287-3.5832-1.6287 3.5832z" fill-rule="evenodd"/><path d="m2 21c0-.5523.44772-1 1-1h18c.5523 0 1 .4477 1 1s-.4477 1-1 1h-18c-.55228 0-1-.4477-1-1z"/></g></svg>

<svg width="24" height="24" viewBox="0 0 24 24" fill="none" xmlns="http://www.w3.org/2000/svg">
<path d="M3 2C2.44772 2 2 2.44772 2 3C2 3.55228 2.44772 4 3 4H21C21.5523 4 22 3.55228 22 3C22 2.44772 21.5523 2 21 2H3Z" fill="#801ED7"/>
<path fill-rule="evenodd" clip-rule="evenodd" d="M12.6628 5.86287C12.2449 5.65704 11.7551 5.65704 11.3372 5.86287C10.97 6.04374 10.7764 6.3608 10.6825 6.52606C10.5819 6.70318 10.4788 6.93005 10.3763 7.15569L6.08963 16.5864C5.8611 17.0892 6.08342 17.682 6.5862 17.9106C7.08898 18.1391 7.68183 17.9168 7.91037 17.414L9.46218 14L14.5378 14L16.0896 17.414C16.3182 17.9168 16.911 18.1391 17.4138 17.9106C17.9166 17.682 18.1389 17.0892 17.9104 16.5864L13.6237 7.15569C13.5212 6.93005 13.4181 6.70318 13.3175 6.52606C13.2236 6.3608 13.03 6.04374 12.6628 5.86287ZM13.6287 12L12 8.4168L10.3713 12L13.6287 12Z" fill="#801ED7"/>
<path d="M2 21C2 20.4477 2.44772 20 3 20H21C21.5523 20 22 20.4477 22 21C22 21.5523 21.5523 22 21 22H3C2.44772 22 2 21.5523 2 21Z" fill="#801ED7"/>
</svg>
